X:165
T:Well may Charlie wear the Crown
T:Gu ma maigh thig an cr\`un dha Tearlach
R:Slow Air
S:Simon Fraser Collection
N:No.110
O:Scottish
M:C
L:1/8
Q:1/4=120
K:D
f>e|d2 c>B B>c d>D|F2 A>B A2 f>e|d2 c>B B>c d>^E|F2 B>c B2 f>e|
d2 c>B B>c d>D|F2 A2 a2 zg|f>ed>c B>c D^E|F2 B>c B2||B/A/B/c/|
d>cde f3e|d>dcB A2 fe|d2 c>B B>c d>^E|F2 B>c B2 B>c|d>cd>e f3e|
e>dc>B a3g|f>ed>c B>c d>^E|F2 B>c B2||

